src/sources/forus-webshop/resources/_webshop-common/assets/img/icon-search/funds.svg

<svg width="16" height="16" viewBox="0 0 16 16" fill="none" xmlns="http://www.w3.org/2000/svg">
<path d="M1.33332 14.7557C0.594645 14.7557 0 14.1611 0 13.4224V6.48909C0 5.75042 0.594645 5.15576 1.33332 5.15576H8.00001H14.6667C15.4054 5.15576 16 5.75042 16 6.48909V13.4224C16 14.1611 15.4054 14.7557 14.6667 14.7557H8.00001H1.33332Z" fill="#3C4F4B"/>
<path d="M1.33332 11.0222C0.594645 11.0222 0 10.4276 0 9.6889V2.75557C0 2.0169 0.594645 1.42224 1.33332 1.42224H14.6667C15.4054 1.42224 16 2.0169 16 2.75557V9.6889C16 10.4276 15.4054 11.0222 14.6667 11.0222H1.33332Z" fill="#89BBB1"/>
<path d="M2.48775 1.42224C2.40868 2.74161 1.32167 3.77455 0 3.7863V8.65817C1.32167 8.66991 2.40868 9.70287 2.48775 11.0222H13.5122C13.5913 9.70287 14.6783 8.66992 16 8.65817V3.7863C14.6783 3.77456 13.5913 2.74161 13.5122 1.42224H2.48775Z" fill="#39907E"/>
<path d="M8.00047 2.72522C6.11519 2.72518 4.58687 4.25341 4.58691 6.13858C4.58687 8.02375 6.11519 9.55198 8.00047 9.55194C9.88559 9.55177 11.4137 8.0236 11.4136 6.13858C11.4136 4.24236 9.87908 2.72537 8.00047 2.72522Z" fill="white"/>
<path d="M5.80566 5.9353V5.405H6.41665C6.54579 4.9654 6.77476 4.61197 7.10425 4.34488C7.4332 4.0778 7.80707 3.94434 8.2264 3.94434C8.84885 3.94434 9.34232 4.1806 9.70665 4.65312L9.28979 5.20787C9.11712 5.01478 8.9536 4.87906 8.79916 4.80111C8.64426 4.72308 8.45344 4.68395 8.2264 4.68395C7.99874 4.68395 7.79415 4.74664 7.61248 4.8718C7.43028 4.99719 7.29407 5.17503 7.20408 5.405H8.60219V5.93522H7.08033C7.07648 5.98444 7.07456 6.0594 7.07456 6.16018C7.07456 6.26081 7.08033 6.35626 7.09225 6.44664H8.60219V6.97678H7.251C7.46235 7.40419 7.78169 7.61786 8.20871 7.61786C8.41999 7.61786 8.60119 7.57574 8.75186 7.4915C8.90292 7.40718 9.06259 7.27477 9.23087 7.09394L9.64781 7.62391C9.28348 8.09668 8.80393 8.33294 8.20871 8.33294C7.8013 8.33294 7.43989 8.21054 7.12478 7.96604C6.80921 7.72171 6.58309 7.39193 6.4458 6.97678H5.80566V6.44664H6.33444C6.32259 6.34855 6.31668 6.24978 6.31675 6.15091C6.31675 6.05238 6.31867 5.98041 6.32251 5.93522H5.80566V5.9353Z" fill="#3C4F4B"/>
</svg>

<svg width="16" height="16" fill="none" xmlns="http://www.w3.org/2000/svg">
    <path d="M1.333 14.756A1.33 1.33 0 0 1 0 13.422V6.49a1.33 1.33 0 0 1 1.333-1.333h13.334A1.33 1.33 0 0 1 16 6.489v6.933a1.33 1.33 0 0 1-1.333 1.334H1.333Z" fill="#3C4F4B" class="svg_fill_dark"/>
    <path d="M1.333 11.022A1.33 1.33 0 0 1 0 9.69V2.756a1.33 1.33 0 0 1 1.333-1.334h13.334A1.33 1.33 0 0 1 16 2.756v6.933a1.33 1.33 0 0 1-1.333 1.333H1.333Z" fill="#89BBB1" class="svg_fill_light"/>
    <path d="M2.488 1.422A2.515 2.515 0 0 1 0 3.786v4.872a2.515 2.515 0 0 1 2.488 2.364h11.024A2.515 2.515 0 0 1 16 8.658V3.786a2.515 2.515 0 0 1-2.488-2.364H2.488Z" fill="#39907E" class="svg_fill_medium"/>
    <path d="M8 2.725a3.413 3.413 0 1 0 0 6.827 3.413 3.413 0 0 0 0-6.827Z" fill="#fff"/>
    <path d="M5.806 5.935v-.53h.61c.13-.44.359-.793.688-1.06.33-.267.703-.4 1.122-.4.623 0 1.116.236 1.48.708l-.416.555A1.754 1.754 0 0 0 8.8 4.8a1.264 1.264 0 0 0-.574-.117c-.227 0-.432.063-.614.188a1.124 1.124 0 0 0-.408.533h1.398v.53H7.08a3.17 3.17 0 0 0 .012.512h1.51v.53H7.251c.211.427.53.64.958.64.211 0 .392-.041.543-.125.15-.085.31-.217.479-.398l.417.53a1.73 1.73 0 0 1-1.44.709 1.72 1.72 0 0 1-1.083-.367 2.014 2.014 0 0 1-.68-.99h-.64v-.53h.53a2.849 2.849 0 0 1-.012-.511h-.517Z" fill="#3C4F4B" class="svg_fill_dark" />
</svg>
